X:94
T:King George IV Highland
B:NFID.173a
094king_g
S:F&MB
N:1:I changed last note of measure 5 from |A,| to |B,| and last note
of part B from |G,| to |G|.
N:2:I have changed the last triplets in m.8 from |(3DA,D (3B,A,D| to
|(3DE^F (3GBd|.
N:3:I have removed the rolls on the first A's in mm 2,3,5,6, and 7 from
the MIDI file due to program problems in reproducing an accurate sound.
L:1/8
M:C
R:hornpipe
Q:240
K:Am
A,A,A,B, (3CB,A, EA,|A,2EA, (3B,A,D (3B,A,G,|A,2EA, (3CB,A, ED|\
B,DGE (3DA,D (3B,A,G,|
A,4 CDEB,|A,2EA, (3DB,D (3B,A,G,|A,3B, (3CB,A, ED|\
B,DGE (3DE^F (3GBd||
e2AB (3cBA eA|e2A^f (3gag (3fed|e2AB (3cBA ed|Bdge (3ded (3BAG|
e2AB (3cBA eA|e2A^f (3gag (3fed|a2^fg efdA|Bdge (3ded (3BAG||

%%%

